Assets/Icons/bookstack.svg

<svg xmlns="http://www.w3.org/2000/svg" width="24" height="24" viewBox="0 0 24 24"><path fill="currentColor" d="M.301 17.615C.171 17.275-.221 16.103.168 15.183L9.995 20.857A.329.329 0 0010.325 20.857L24 12.962V15.316L10.16 23.306.3 17.615ZM.191 8.963C-.097 9.84.206 11.021.315 11.389L10.16 17.073 24 9.083V6.726L10.325 14.622A.329.329 0 019.995 14.622L.19 8.963ZM13.361 7.027A.332.332 0 0112.876 6.82L12.596 5.687 10.47 5.511A.33.33 0 0110.332 4.897L15.91 1.677 14.208.694.698 8.494 10.16 13.956 23.67 6.156 19.27 3.616 13.36 7.026ZM13.179 5.298 13.411 6.236 18.609 3.235 16.569 2.057 11.576 4.941 12.886 5.049A.33.33 0 0113.179 5.299ZM24 9.845 10.325 17.74A.329.329 0 019.995 17.74L.168 12.067C-.222 12.986.171 14.158.301 14.497L10.16 20.19 24 12.2V9.844Z"/></svg>

<svg version="1.2" xmlns="http://www.w3.org/2000/svg" viewBox="0 0 24 24" width="24" height="24"><style></style><path  d="m0.3 17.6c-0.1-0.3-0.5-1.5-0.1-2.4l9.8 5.7q0 0 0.1 0 0 0 0.1 0 0 0 0 0 0.1 0 0.1 0l13.7-7.9v2.3l-13.8 8c0 0-9.9-5.7-9.9-5.7zm-0.1-8.6c-0.3 0.8 0 2 0.1 2.4l9.9 5.7 13.8-8v-2.4l-13.7 7.9q0 0-0.1 0.1 0 0 0 0-0.1 0-0.1 0-0.1-0.1-0.1-0.1c0 0-9.8-5.6-9.8-5.6zm13.2-2q-0.1 0.1-0.2 0.1-0.1 0-0.1-0.1-0.1 0-0.2 0 0-0.1 0-0.2l-0.3-1.1-2.1-0.2q-0.1 0-0.2-0.1-0.1 0-0.1-0.1 0-0.2 0-0.2 0-0.1 0.1-0.2l5.6-3.2-1.7-1-13.5 7.8 9.5 5.5 13.5-7.8-4.4-2.6c0 0-5.9 3.4-5.9 3.4zm-0.2-1.7l0.2 0.9 5.2-3-2-1.1-5 2.8 1.3 0.1q0 0.1 0.1 0.1 0 0 0.1 0 0 0.1 0 0.1 0.1 0 0.1 0.1zm10.8 4.5l-13.7 7.9q0 0.1-0.1 0.1 0 0 0 0-0.1 0-0.1 0-0.1 0-0.1-0.1l-9.8-5.6c-0.4 0.9 0 2.1 0.1 2.4l9.9 5.7 13.8-8c0 0 0-2.4 0-2.4z"/></svg>
